icon-svg/stage-light.svg

<svg xmlns="http://www.w3.org/2000/svg" fill="#44739e" viewBox="0 0 24 24"><path d="m9.762 2.674.028-.4H9.1v.693l-.22-.035a35 35 0 0 1-.558-.094 3.2 3.2 0 0 0-.845 0c-.757.09-.745.065-.745 1.585v1.25l-.364.227c-1.594.987-2.782 2.93-2.376 3.881.091.214 4.036 3.953 4.158 3.941.019 0 .43-.572.913-1.267.8-1.148.922-1.292 1.336-1.577.557-.384.479-.387 1.068.044l.49.358.285-.146a5.87 5.87 0 0 0 .934-.791l.647-.645-.905-.845-.906-.845-.02-2.176-.019-2.177-.173-.141a2.7 2.7 0 0 0-1.119-.291l-.943-.149.027-.4m-2 1.6a3.62 3.62 0 0 1 .086-1.025 2.74 2.74 0 0 1 1.249.292c0 .2.39.259.572.088.1-.091.164-.093.629-.016.714.117.692.053.693 1.947v1.546l-.964-.886c-1.094-1-1.314-1.116-1.957-.993l-.33.063.018-1.012m.884 1.708c.064-.182.309 0 1.839 1.388 1.68 1.519 1.74 1.583 1.559 1.648a32.1 32.1 0 0 1-3.4-3.036m-.892.2c-.015-.242.232-.056 1.79 1.346 1.466 1.319 1.872 1.761 1.56 1.7a39.5 39.5 0 0 1-3.35-3.043m-1.428.8c0-.145.128-.157.268-.026a.474.474 0 0 1 .138.3v.17l-.2-.182a.65.65 0 0 1-.2-.261M9 8.4C7.837 7.34 7.731 7.226 7.754 7.052c.014-.1.04-.161.059-.125s.611.591 1.318 1.234c1.2 1.086 1.466 1.391 1.239 1.391A14.2 14.2 0 0 1 9 8.4m-3.29-.98c0-.179.263-.06.628.285.295.279.387.411.387.553 0 .181-.015.172-.507-.285a2.74 2.74 0 0 1-.508-.553m-.461.6c-.043-.219.167-.1.818.477.548.483.661.615.66.769 0 .205-1.43-1-1.478-1.246m3.4 1.161c-.732-.674-.917-.878-.9-1a7.49 7.49 0 0 1 2.025 1.76c0 .224-.173.1-1.116-.763m-3.824-.487c0-.224.3-.029 1.073.693.653.612.829.813.811.926a7.49 7.49 0 0 1-1.884-1.619m13.838.264a7.88 7.88 0 0 0-3.17.135l-1.072.236s-1.55 1.562-1.363 1.54c.068-.008 2.787.091 2.787.091l1.372-.67c1.34-.654 3.863-1.208 3.019-1.235-.27-.008-.978-.052-1.573-.1m-10.443.835c-.4-.384-.492-.5-.474-.64.021-.158.07-.125.765.528.555.522.722.715.665.769-.1.1-.318-.052-.956-.657m-2.068 1.265C4.676 9.7 4.49 9.508 4.586 9.434s.238.033 1.143.856c.569.518 1.316 1.2 1.66 1.505.569.513.764.8.541.792-.046 0-.842-.692-1.769-1.535m1.965-.352c-.3-.279-.387-.407-.37-.522.026-.182.94.581.937.783s-.165.12-.567-.261m3.293.371c-.8-.564-.79-.57-3.417 3.14-1.149 1.624-2.075 2.966-2.056 2.983a3.42 3.42 0 0 0 .617-.472 6.9 6.9 0 0 1 1.613-1.027l1.03-.526.448-.641c.246-.352.845-1.2 1.33-1.89l.882-1.25zm-3.844.19c-.524-.493-.533-.506-.335-.506.232 0 1.168.815 1.083.943s-.217.063-.748-.437m7.257-.207c-.121-.014-.235-.03-.254-.036a.91.91 0 0 0-.034.354c0 1.212-1.416 2.857-3.011 3.5-.712.286-1.624.154-1.624-.234 0-.144-.1-.092-.254.138l-.153.221.22.188c.751.639 2.271.26 3.605-.9 1.271-1.1 2.223-3.147 1.505-3.23m2.479.727c-.591-.032-1.218-.062-1.392-.067L15.6 11.7l-1.286 1.725-1.284 1.727.79.743a11.26 11.26 0 0 0 2.814 1.874c1.627-1.95 3.9-4.887 3.824-4.936-.052-.033-.54-.27-1.083-.527l-.989-.468-1.075-.058m-4.8 3.835c-.019-.029-3.049.158-3.049.158l-.482 2.761.669 2.158 4.513-.67s-1.633-4.379-1.651-4.407"/></svg>

<?xml version="1.0" encoding="UTF-8"?>
<svg width="24px" fill="#44739e" height="24px" viewBox="0 0 24 24" version="1.1" xmlns="http://www.w3.org/2000/svg" xmlns:xlink="http://www.w3.org/1999/xlink">
            <path d="M 9.762,2.674 9.79,2.274 H 9.1 V 2.967 L 8.88,2.932 C 8.759,2.913 8.508,2.871 8.322,2.838 a 3.207,3.207 0 0 0 -0.845,0 C 6.72,2.928 6.732,2.903 6.732,4.423 v 1.25 L 6.368,5.9 C 4.774,6.887 3.586,8.83 3.992,9.781 c 0.091,0.214 4.036,3.953 4.158,3.941 0.019,0 0.43,-0.572 0.913,-1.267 0.8,-1.148 0.922,-1.292 1.336,-1.577 0.557,-0.384 0.479,-0.387 1.068,0.044 l 0.49,0.358 0.285,-0.146 a 5.867,5.867 0 0 0 0.934,-0.791 L 13.823,9.698 12.918,8.853 12.012,8.008 11.992,5.832 11.973,3.655 11.8,3.514 A 2.7,2.7 0 0 0 10.681,3.223 L 9.738,3.074 9.765,2.674 m -2,1.6 A 3.622,3.622 0 0 1 7.851,3.249 2.739,2.739 0 0 1 9.1,3.541 c 0,0.2 0.39,0.259 0.572,0.088 0.1,-0.091 0.164,-0.093 0.629,-0.016 0.714,0.117 0.692,0.053 0.693,1.947 V 7.106 L 10.03,6.22 C 8.936,5.22 8.716,5.104 8.073,5.227 L 7.743,5.29 7.761,4.278 m 0.884,1.708 c 0.064,-0.182 0.309,0 1.839,1.388 1.68,1.519 1.74,1.583 1.559,1.648 a 32.1,32.1 0 0 1 -3.4,-3.036 m -0.892,0.2 C 7.736,5.944 7.983,6.13 9.541,7.532 c 1.466,1.319 1.872,1.761 1.56,1.7 A 39.543,39.543 0 0 1 7.751,6.189 m -1.428,0.8 c 0,-0.145 0.128,-0.157 0.268,-0.026 a 0.474,0.474 0 0 1 0.138,0.3 v 0.17 L 6.529,7.251 A 0.648,0.648 0 0 1 6.329,6.99 M 9,8.4 C 7.837,7.34 7.731,7.226 7.754,7.052 c 0.014,-0.1 0.04,-0.161 0.059,-0.125 0.019,0.036 0.611,0.591 1.318,1.234 1.2,1.086 1.466,1.391 1.239,1.391 A 14.146,14.146 0 0 1 9,8.4 M 5.71,7.42 C 5.71,7.241 5.973,7.36 6.338,7.705 6.633,7.984 6.725,8.116 6.725,8.258 6.725,8.439 6.71,8.43 6.218,7.973 A 2.735,2.735 0 0 1 5.71,7.42 m -0.461,0.6 c -0.043,-0.219 0.167,-0.1 0.818,0.477 0.548,0.483 0.661,0.615 0.66,0.769 0,0.205 -1.43,-1 -1.478,-1.246 m 3.4,1.161 c -0.732,-0.674 -0.917,-0.878 -0.9,-1 a 7.485,7.485 0 0 1 2.025,1.76 c 0,0.224 -0.173,0.1 -1.116,-0.763 M 4.834,8.691 c 0,-0.224 0.3,-0.029 1.073,0.693 0.653,0.612 0.829,0.813 0.811,0.926 A 7.485,7.485 0 0 1 4.834,8.691 M 18.672,8.955 A 7.876,7.876 0 0 0 15.502,9.09 L 14.43,9.326 c 0,0 -1.55,1.562 -1.363,1.54 0.068,-0.008 2.787,0.091 2.787,0.091 l 1.372,-0.67 C 18.566,9.633 21.089,9.079 20.245,9.052 19.975,9.044 19.267,9 18.672,8.952 M 8.229,9.787 C 7.829,9.403 7.737,9.287 7.755,9.147 7.776,8.989 7.825,9.022 8.52,9.675 c 0.555,0.522 0.722,0.715 0.665,0.769 -0.1,0.1 -0.318,-0.052 -0.956,-0.657 M 6.161,11.052 C 4.676,9.7 4.49,9.508 4.586,9.434 4.682,9.36 4.824,9.467 5.729,10.29 c 0.569,0.518 1.316,1.2 1.66,1.505 0.569,0.513 0.764,0.8 0.541,0.792 -0.046,0 -0.842,-0.692 -1.769,-1.535 M 8.126,10.7 C 7.826,10.421 7.739,10.293 7.756,10.178 7.782,9.996 8.696,10.759 8.693,10.961 8.69,11.163 8.528,11.081 8.126,10.7 m 3.293,0.371 c -0.8,-0.564 -0.79,-0.57 -3.417,3.14 -1.149,1.624 -2.075,2.966 -2.056,2.983 a 3.417,3.417 0 0 0 0.617,-0.472 6.888,6.888 0 0 1 1.613,-1.027 l 1.03,-0.526 0.448,-0.641 c 0.246,-0.352 0.845,-1.2 1.33,-1.89 l 0.882,-1.25 -0.447,-0.317 m -3.844,0.19 C 7.051,10.768 7.042,10.755 7.24,10.755 c 0.232,0 1.168,0.815 1.083,0.943 -0.085,0.128 -0.217,0.063 -0.748,-0.437 m 7.257,-0.207 c -0.121,-0.014 -0.235,-0.03 -0.254,-0.036 a 0.906,0.906 0 0 0 -0.034,0.354 c 0,1.212 -1.416,2.857 -3.011,3.5 -0.712,0.286 -1.624,0.154 -1.624,-0.234 0,-0.144 -0.1,-0.092 -0.254,0.138 l -0.153,0.221 0.22,0.188 c 0.751,0.639 2.271,0.26 3.605,-0.9 1.271,-1.1 2.223,-3.147 1.505,-3.23 m 2.479,0.727 C 16.72,11.75 16.093,11.72 15.919,11.715 L 15.6,11.7 l -1.286,1.725 -1.284,1.727 0.79,0.743 a 11.259,11.259 0 0 0 2.814,1.874 c 1.627,-1.95 3.9,-4.887 3.824,-4.936 -0.052,-0.033 -0.54,-0.27 -1.083,-0.527 L 18.386,11.838 17.311,11.78 m -4.8,3.835 c -0.019,-0.029 -3.049,0.158 -3.049,0.158 l -0.482,2.761 0.669,2.158 4.513,-0.67 c 0,0 -1.633,-4.379 -1.651,-4.407"/>

</svg>
